static/img/kroki/d3fe2f9e8c915daa4ba7ee5606dd3eb7.svg

<?xml version="1.0" encoding="us-ascii" standalone="no"?><svg xmlns="http://www.w3.org/2000/svg" xmlns:xlink="http://www.w3.org/1999/xlink" contentStyleType="text/css" height="152px" preserveAspectRatio="none" style="width:398px;height:152px;" version="1.1" viewBox="0 0 398 152" width="398px" zoomAndPan="magnify"><defs/><g><!--class aws_cloudfront_distribution--><g id="elem_aws_cloudfront_distribution"><rect codeLine="22" fill="#3D176E" height="39.7891" id="aws_cloudfront_distribution" rx="2.5" ry="2.5" style="stroke:#000D19;stroke-width:0.5;" width="274" x="62" y="7"/><ellipse cx="77" cy="26.8945" fill="#ADD1B2" rx="11" ry="11" style="stroke:#181818;stroke-width:1.0;"/><path d="M79.9688,32.5352 Q79.3906,32.832 78.75,32.9727 Q78.1094,33.1289 77.4063,33.1289 Q74.9063,33.1289 73.5781,31.4883 Q72.2656,29.832 72.2656,26.707 Q72.2656,23.582 73.5781,21.9258 Q74.9063,20.2695 77.4063,20.2695 Q78.1094,20.2695 78.75,20.4258 Q79.4063,20.582 79.9688,20.8789 L79.9688,23.5977 Q79.3438,23.0195 78.75,22.7539 Q78.1563,22.4727 77.5313,22.4727 Q76.1875,22.4727 75.5,23.5508 Q74.8125,24.6133 74.8125,26.707 Q74.8125,28.8008 75.5,29.8789 Q76.1875,30.9414 77.5313,30.9414 Q78.1563,30.9414 78.75,30.6758 Q79.3438,30.3945 79.9688,29.8164 L79.9688,32.5352 Z " fill="#000000"/><text fill="#D9B8FF" font-family="Helvetica" font-size="17" lengthAdjust="spacing" textLength="232" x="96" y="32.7798">aws_cloudfront_distribution</text></g><!--class aws_cloudfront_response_headers_policy--><g id="elem_aws_cloudfront_response_headers_policy"><rect codeLine="24" fill="#3D176E" height="39.7891" id="aws_cloudfront_response_headers_policy" rx="2.5" ry="2.5" style="stroke:#000D19;stroke-width:0.5;" width="384" x="7" y="106.79"/><ellipse cx="22" cy="126.6845" fill="#ADD1B2" rx="11" ry="11" style="stroke:#181818;stroke-width:1.0;"/><path d="M24.9688,132.3252 Q24.3906,132.622 23.75,132.7627 Q23.1094,132.9189 22.4063,132.9189 Q19.9063,132.9189 18.5781,131.2783 Q17.2656,129.622 17.2656,126.497 Q17.2656,123.372 18.5781,121.7158 Q19.9063,120.0595 22.4063,120.0595 Q23.1094,120.0595 23.75,120.2158 Q24.4063,120.372 24.9688,120.6689 L24.9688,123.3877 Q24.3438,122.8095 23.75,122.5439 Q23.1563,122.2627 22.5313,122.2627 Q21.1875,122.2627 20.5,123.3408 Q19.8125,124.4033 19.8125,126.497 Q19.8125,128.5908 20.5,129.6689 Q21.1875,130.7314 22.5313,130.7314 Q23.1563,130.7314 23.75,130.4658 Q24.3438,130.1845 24.9688,129.6064 L24.9688,132.3252 Z " fill="#000000"/><text fill="#D9B8FF" font-family="Helvetica" font-size="17" lengthAdjust="spacing" textLength="342" x="41" y="132.5698">aws_cloudfront_response_headers_policy</text></g><!--link aws_cloudfront_distribution to aws_cloudfront_response_headers_policy--><g id="link_aws_cloudfront_distribution_aws_cloudfront_response_headers_policy"><path codeLine="26" d="M199,47.22 C199,62.49 199,83.92 199,100.53 " fill="none" id="aws_cloudfront_distribution-to-aws_cloudfront_response_headers_policy" style="stroke:#1A83AF;stroke-width:2.0;"/><polygon fill="#1A83AF" points="199,105.41,203,96.41,199,100.41,195,96.41,199,105.41" style="stroke:#1A83AF;stroke-width:2.0;"/></g><!--SRC=[ZPBDIyD04CNl_IiMSYua5crx4MAXwAM8zIOI9jdPPcco4sQsbYh-x_P3PKtwuNNURz-yDsnfDIgi6xzHDTOvilHaQLq33BLAcMazeOfOHSQ06GpRufISlmZCe4PrZzKRUbj0ctWkRR5qAAAk0kaEYkM2QUNqmTupEDbAw7n0JIeGIRrdcwyy1c7qE1yPqoRRfj509yCRx6346laRYUDO9-CsSd7LsTw_nDo-eqh2eyt8OoTcPyMUEfjoHmGXEqL_z9CP7q5hwnRgEfWz7JAnG_updvUWQRsZ3LGIhX6FZEGt3KuwhN0yqcPu57uu1HUxoobOIrPKjDA6jnKoRUNm0omvzT7xF4unIaDEC2iHjeUJhA7A5flzWtE6_PSeIKU3TFhQl_sdvnS0]--></g></svg>

<svg xmlns="http://www.w3.org/2000/svg" width="398" height="152" preserveAspectRatio="none" style="width:398px;height:152px"><rect width="274" height="39.789" x="62" y="7" fill="#3D176E" rx="2.5" ry="2.5" style="stroke:#000d19;stroke-width:.5"/><circle cx="77" cy="26.895" r="11" fill="#ADD1B2" style="stroke:#181818;stroke-width:1"/><path d="M79.969 32.535q-.578.297-1.219.438-.64.156-1.344.156-2.5 0-3.828-1.64-1.312-1.657-1.312-4.782t1.312-4.781q1.328-1.656 3.828-1.656.703 0 1.344.156.656.156 1.219.453v2.719q-.625-.578-1.219-.844-.594-.281-1.219-.281-1.344 0-2.031 1.078-.688 1.062-.688 3.156 0 2.094.688 3.172.688 1.062 2.031 1.062.625 0 1.219-.265.594-.281 1.219-.86v2.72Z"/><text x="96" y="32.78" fill="#D9B8FF" font-family="Helvetica" font-size="17" textLength="232">aws_cloudfront_distribution</text><rect width="384" height="39.789" x="7" y="106.79" fill="#3D176E" rx="2.5" ry="2.5" style="stroke:#000d19;stroke-width:.5"/><circle cx="22" cy="126.684" r="11" fill="#ADD1B2" style="stroke:#181818;stroke-width:1"/><path d="M24.969 132.325q-.578.297-1.219.438-.64.156-1.344.156-2.5 0-3.828-1.64-1.312-1.657-1.312-4.782t1.312-4.781q1.328-1.656 3.828-1.656.703 0 1.344.156.656.156 1.219.453v2.719q-.625-.579-1.219-.844-.594-.281-1.219-.281-1.343 0-2.031 1.078-.688 1.062-.688 3.156 0 2.094.688 3.172.688 1.062 2.031 1.062.625 0 1.219-.265.594-.281 1.219-.86v2.72Z"/><text x="41" y="132.57" fill="#D9B8FF" font-family="Helvetica" font-size="17" textLength="342">aws_cloudfront_response_headers_policy</text><path fill="none" d="M199 47.22v53.31" style="stroke:#1a83af;stroke-width:2"/><path fill="#1A83AF" d="m199 105.41 4-9-4 4-4-4 4 9z" style="stroke:#1a83af;stroke-width:2"/></svg>
